_site/images/registration/comments.svg

<svg height="91" viewBox="0 0 89 91" width="89" xmlns="http://www.w3.org/2000/svg" xmlns:xlink="http://www.w3.org/1999/xlink"><mask id="a" fill="#fff"><path d="m10 0h90c5.522847 0 10 4.4771525 10 10v96c0 5.522847-4.477153 10-10 10h-90c-5.5228475 0-10-4.477153-10-10v-96c0-5.5228475 4.4771525-10 10-10z" fill="#fff" fill-rule="evenodd"/></mask><g fill="#0b7a76" fill-opacity=".27" mask="url(#a)" transform="translate(-21 -25)"><path d="m84.6819301 78.2211834c5.7725525-7.7380484 7.7217797-17.6777324 5.2993568-27.0229838-2.4224228-9.3452514-8.954731-17.0862319-17.7593633-21.0453764-2.5936501-14.9229371-14.1614469-26.67756353-29.040455-29.50948274-14.8790081-2.83191922-29.9558353 3.85144025-37.84972448 16.77828574-7.89388916 12.9268455-6.95306529 29.3922694 2.36189774 41.3357368l-6.32095219 6.2757178c-1.29031353 1.3077172-1.66707943 3.2633864-.954964 4.9569075.69759483 1.6981979 2.34783863 2.8103613 4.18365181 2.8195254h25.87497692c5.2591305 11.0877132 16.4230547 18.1649565 28.6943945 18.1904863h27.2846857c1.8358132-.0091641 3.486057-1.1213275 4.1836518-2.8195254.7121155-1.693521.3353496-3.6491903-.954964-4.9569075zm-57.3433145-19.0545345c.0062465 1.5228865.1278598 3.043111.3637958 4.5476216h-12.1416852l1.5916067-1.5461913c.8608894-.8538915 1.3451274-2.0162447 1.3451274-3.2288113 0-1.2125667-.484238-2.3749199-1.3451274-3.2288114-5.1483222-5.0920367-8.03256142-12.0406971-8.0035078-19.2819155 0-15.0694923 12.2157699-27.28572945 27.2846857-27.28572945 11.5775681-.06957731 21.9119939 7.24711025 25.6930791 18.19048635-1.0004385 0-1.9554025 0-2.955841 0-17.5804018 0-31.8321333 14.2522767-31.8321333 31.833351zm47.9300979 22.7381079.2273724.2273811h-16.325337c-10.8462141-.0193718-20.1686636-7.697281-22.2670508-18.3389994s3.6115908-21.2840237 13.6385154-25.4195802c10.0269246-4.1355564 21.5787649-.6128045 27.5920416 8.4142366 6.0132768 9.0270412 4.8135729 21.0447617-2.8655416 28.7048155-.856804.8396295-1.3471493 1.9838123-1.3642343 3.1833351.0050451 1.2153332.4963282 2.3780812 1.3642343 3.2288113z" transform="translate(21 25)"/></g></svg>

<?xml version="1.0" encoding="UTF-8"?>
<svg width="89px" height="91px" viewBox="0 0 89 91" version="1.1" xmlns="http://www.w3.org/2000/svg" xmlns:xlink="http://www.w3.org/1999/xlink">
    <!-- Generator: Sketch 52.6 (67491) - http://www.bohemiancoding.com/sketch -->
    <title>comments</title>
    <desc>Created with Sketch.</desc>
    <defs>
        <path d="M10,0 L100,0 C105.522847,-1.01453063e-15 110,4.4771525 110,10 L110,106 C110,111.522847 105.522847,116 100,116 L10,116 C4.4771525,116 6.76353751e-16,111.522847 0,106 L0,10 C-6.76353751e-16,4.4771525 4.4771525,1.01453063e-15 10,0 Z" id="path-1"></path>
    </defs>
    <g id="Sign-up" stroke="none" stroke-width="1" fill="none" fill-rule="evenodd">
        <g id="1.6--confirmation-message" transform="translate(-1230.000000, -552.000000)">
            <g id="Group-4" transform="translate(842.000000, 470.000000)">
                <g id="comments" transform="translate(367.000000, 57.000000)">
                    <mask id="mask-2" fill="white">
                        <use xlink:href="#path-1"></use>
                    </mask>
                    <g id="Mask"></g>
                    <g mask="url(#mask-2)" fill="#0B7A76" fill-opacity="0.27" fill-rule="nonzero" id="Shape">
                        <g transform="translate(21.000000, 25.000000)">
                            <path d="M84.6819301,78.2211834 C90.4544826,70.483135 92.4037098,60.543451 89.9812869,51.1981996 C87.5588641,41.8529482 81.0265559,34.1119677 72.2219236,30.1528232 C69.6282735,15.2298861 58.0604767,3.47525967 43.1814686,0.643340455 C28.3024605,-2.18857876 13.2256333,4.49478071 5.33174412,17.4216262 C-2.56214504,30.3484717 -1.62132117,46.8138956 7.69364186,58.757363 L1.37268967,65.0330808 C0.0823761371,66.340798 -0.294389757,68.2964672 0.417725671,69.9899883 C1.1153205,71.6881862 2.7655643,72.8003496 4.60137748,72.8095137 L30.4763544,72.8095137 C35.7354849,83.8972269 46.8994091,90.9744702 59.1707489,91 L86.4554346,91 C88.2912478,90.9908359 89.9414916,89.8786725 90.6390864,88.1804746 C91.3512019,86.4869536 90.974436,84.5312843 89.6841224,83.2235671 L84.6819301,78.2211834 Z M27.3386156,59.1666489 C27.3448621,60.6895354 27.4664754,62.2097599 27.7024114,63.7142705 L15.5607262,63.7142705 L17.1523329,62.1680792 C18.0132223,61.3141877 18.4974603,60.1518345 18.4974603,58.9392679 C18.4974603,57.7267012 18.0132223,56.564348 17.1523329,55.7104565 C12.0040107,50.6184198 9.11977148,43.6697594 9.1488251,36.428541 C9.1488251,21.3590487 21.364595,9.14281155 36.4335108,9.14281155 C48.0110789,9.07323424 58.3455047,16.3899218 62.1265899,27.3332979 C61.1261514,27.3332979 60.1711874,27.3332979 59.1707489,27.3332979 C41.5903471,27.3332979 27.3386156,41.5855746 27.3386156,59.1666489 Z M75.2687135,81.9047568 L75.4960859,82.1321379 L59.1707489,82.1321379 C48.3245348,82.1127661 39.0020853,74.4348569 36.9036981,63.7931385 C34.8053109,53.1514201 40.5152889,42.5091148 50.5422135,38.3735583 C60.5691381,34.2380019 72.1209784,37.7607538 78.1342551,46.7877949 C84.1475319,55.8148361 82.947828,67.8325566 75.2687135,75.4926104 C74.4119095,76.3322399 73.9215642,77.4764227 73.9044792,78.6759455 C73.9095243,79.8912787 74.4008074,81.0540267 75.2687135,81.9047568 Z"></path>
                        </g>
                    </g>
                </g>
            </g>
        </g>
    </g>
</svg>
